icon/bts/compose.svg

<svg xmlns="http://www.w3.org/2000/svg" width="32" height="32" fill="none" stroke="currentcolor" stroke-linecap="round" stroke-linejoin="round" stroke-width="2"><path d="M27 15v15H2V5h15m13 1-4-4L9 19l-2 6 6-2Zm-8 0 4 4ZM9 19l4 4Z"/></svg>

<svg id="i-compose" xmlns="http://www.w3.org/2000/svg" viewBox="0 0 32 32" fill="none" stroke="currentcolor" stroke-linecap="round" stroke-linejoin="round" stroke-width="2" height="1em" width="1em">
  <path d="M27 15 L27 30 2 30 2 5 17 5 M30 6 L26 2 9 19 7 25 13 23 Z M22 6 L26 10 Z M9 19 L13 23 Z"/>
</svg>
